X: 1
T: Off to California
M: C|
R: hornpipe
K: G
(3DEF| "G"GFGB "D7"AGED| "G"GBdg "C"e2 (3def| "G"gfgd edBG|1 "Am"ABAG "D7"E2 :| \
                                                          [2 "D7"ABAF "G"G2 |]
|:\
(3def| "Em"gfeg "D"fedf| "Em"edef edBd| "G"gfgd edBG| "Am"ABAG "D7"E2 (3DEF|
       "G"GFGB "D7"AGED| "G"GBdg "C"e2 (3def| "G"gfgd edBG| "D7"AGEF "G"G2 :|
%%text 9/1/98.  Hornpipe.  Also known as "The Whiskey Hornpipe".
